src/32/apps/internet-mail.svg

<?xml version="1.0" encoding="UTF-8" standalone="no"?>
<svg
   xmlns:dc="http://purl.org/dc/elements/1.1/"
   xmlns:cc="http://creativecommons.org/ns#"
   xmlns:rdf="http://www.w3.org/1999/02/22-rdf-syntax-ns#"
   xmlns:svg="http://www.w3.org/2000/svg"
   xmlns="http://www.w3.org/2000/svg"
   xmlns:xlink="http://www.w3.org/1999/xlink"
   xmlns:sodipodi="http://sodipodi.sourceforge.net/DTD/sodipodi-0.dtd"
   xmlns:inkscape="http://www.inkscape.org/namespaces/inkscape"
   version="1.1"
   width="32"
   height="32"
   id="svg4399"
   inkscape:version="0.92.4 (5da689c313, 2019-01-14)"
   sodipodi:docname="internet-mail.svg">
  <sodipodi:namedview
     pagecolor="#ffffff"
     bordercolor="#666666"
     borderopacity="1"
     objecttolerance="10"
     gridtolerance="10"
     guidetolerance="10"
     inkscape:pageopacity="0"
     inkscape:pageshadow="2"
     inkscape:window-width="1366"
     inkscape:window-height="697"
     id="namedview113"
     showgrid="false"
     inkscape:zoom="5.6568542"
     inkscape:cx="-11.440477"
     inkscape:cy="19.931757"
     inkscape:window-x="0"
     inkscape:window-y="0"
     inkscape:window-maximized="1"
     inkscape:current-layer="svg4399">
    <inkscape:grid
       type="xygrid"
       id="grid8196" />
  </sodipodi:namedview>
  <defs
     id="defs4401">
    <linearGradient
       x1="23.99999"
       y1="4.999989"
       x2="23.99999"
       y2="37.992332"
       id="linearGradient3224-3"
       xlink:href="#linearGradient3924-803-9-8-7"
       gradientUnits="userSpaceOnUse"
       gradientTransform="matrix(0.64102505,0,0,0.64102505,0.7819828,5.9079482)" />
    <linearGradient
       id="linearGradient3924-803-9-8-7">
      <stop
         id="stop3252-4-0-4"
         style="stop-color:#ffffff;stop-opacity:1"
         offset="0" />
      <stop
         id="stop3254-4-8-3"
         style="stop-color:#ffffff;stop-opacity:0.23529412"
         offset="0.06316455" />
      <stop
         id="stop3256-1-5-5"
         style="stop-color:#ffffff;stop-opacity:0.15686275"
         offset="0.95056331" />
      <stop
         id="stop3258-8-3-5"
         style="stop-color:#ffffff;stop-opacity:0.39215687"
         offset="1" />
    </linearGradient>
    <linearGradient
       x1="23.99999"
       y1="4.999989"
       x2="23.99999"
       y2="43"
       id="linearGradient3211"
       xlink:href="#linearGradient3924-118"
       gradientUnits="userSpaceOnUse"
       gradientTransform="matrix(0.67567568,0,0,0.67567568,-0.21621242,-0.21620942)" />
    <linearGradient
       id="linearGradient3924-118">
      <stop
         id="stop3216"
         style="stop-color:#ffffff;stop-opacity:1"
         offset="0" />
      <stop
         id="stop3218"
         style="stop-color:#ffffff;stop-opacity:0.23529412"
         offset="0.06316455" />
      <stop
         id="stop3220"
         style="stop-color:#ffffff;stop-opacity:0.15686275"
         offset="0.95056331" />
      <stop
         id="stop3222"
         style="stop-color:#ffffff;stop-opacity:0.39215687"
         offset="1" />
    </linearGradient>
    <linearGradient
       x1="15"
       y1="32"
       x2="15"
       y2="6"
       id="linearGradient3234-7"
       xlink:href="#linearGradient3909-3-9-6"
       gradientUnits="userSpaceOnUse"
       gradientTransform="matrix(0.631579,0,0,0.62009179,1.8421048,1.2794495)" />
    <linearGradient
       id="linearGradient3909-3-9-6">
      <stop
         id="stop3911-8-7-9"
         style="stop-color:#fff0bf;stop-opacity:1"
         offset="0" />
      <stop
         id="stop3913-4-2-5"
         style="stop-color:#fdde76;stop-opacity:1"
         offset="1" />
    </linearGradient>
    <linearGradient
       x1="19.567474"
       y1="38.228374"
       x2="19.567474"
       y2="34.480747"
       id="linearGradient3231"
       xlink:href="#linearGradient4026-8"
       gradientUnits="userSpaceOnUse"
       gradientTransform="matrix(0.65088696,0,0,0.64102505,0.3787252,-0.3939241)" />
    <linearGradient
       id="linearGradient4026-8">
      <stop
         id="stop4028-6"
         style="stop-color:#ffeeb6;stop-opacity:1"
         offset="0" />
      <stop
         id="stop4030-7"
         style="stop-color:#feeeb7;stop-opacity:1"
         offset="1" />
    </linearGradient>
    <linearGradient
       x1="25.525208"
       y1="35.429005"
       x2="25.525208"
       y2="15.737678"
       id="linearGradient3237"
       xlink:href="#linearGradient3866-6"
       gradientUnits="userSpaceOnUse"
       gradientTransform="matrix(0.47103918,0,0,0.40638008,4.6951727,1.7342651)"
       spreadMethod="reflect" />
    <linearGradient
       id="linearGradient3866-6">
      <stop
         id="stop3868-7"
         style="stop-color:#969696;stop-opacity:1"
         offset="0" />
      <stop
         id="stop3872-0"
         style="stop-color:#858585;stop-opacity:0.63478261"
         offset="0.5" />
      <stop
         id="stop3870-0"
         style="stop-color:#939393;stop-opacity:0"
         offset="1" />
    </linearGradient>
    <linearGradient
       x1="24"
       y1="44"
       x2="24"
       y2="3.8990016"
       id="linearGradient3240"
       xlink:href="#linearGradient3856-8-9"
       gradientUnits="userSpaceOnUse"
       gradientTransform="matrix(-0.64102505,0,0,0.64102505,31.388364,1.6153992)" />
    <linearGradient
       id="linearGradient3856-8-9">
      <stop
         id="stop3858-7-5"
         style="stop-color:#b67926;stop-opacity:1"
         offset="0" />
      <stop
         id="stop3860-2-2"
         style="stop-color:#eab41a;stop-opacity:1"
         offset="1" />
    </linearGradient>
    <linearGradient
       x1="23.99999"
       y1="4.999989"
       x2="23.99999"
       y2="43"
       id="linearGradient3245"
       xlink:href="#linearGradient3924-803-0"
       gradientUnits="userSpaceOnUse"
       gradientTransform="matrix(0.5135135,0,0,0.32432431,3.6756771,5.7162192)" />
    <linearGradient
       id="linearGradient3924-803-0">
      <stop
         id="stop3252-06"
         style="stop-color:#ffffff;stop-opacity:1"
         offset="0" />
      <stop
         id="stop3254-1"
         style="stop-color:#ffffff;stop-opacity:0.23529412"
         offset="0.06316455" />
      <stop
         id="stop3256-0"
         style="stop-color:#ffffff;stop-opacity:0.15686275"
         offset="0.95056331" />
      <stop
         id="stop3258-2"
         style="stop-color:#ffffff;stop-opacity:0.39215687"
         offset="1" />
    </linearGradient>
    <linearGradient
       x1="16.626165"
       y1="15.298182"
       x2="20.054544"
       y2="24.627615"
       id="linearGradient3248"
       xlink:href="#linearGradient8265-821-176-38-919-66-249-7-7"
       gradientUnits="userSpaceOnUse"
       gradientTransform="matrix(0.4342002,0,0,0.48796258,5.5588843,4.2126548)" />
    <linearGradient
       id="linearGradient8265-821-176-38-919-66-249-7-7">
      <stop
         id="stop2687-1-9"
         style="stop-color:#ffffff;stop-opacity:1"
         offset="0" />
      <stop
         id="stop2689-5-4"
         style="stop-color:#ffffff;stop-opacity:0"
         offset="1" />
    </linearGradient>
    <linearGradient
       x1="25.525208"
       y1="30.188753"
       x2="25.525208"
       y2="15.737678"
       id="linearGradient3251"
       xlink:href="#linearGradient3333-4-4"
       gradientUnits="userSpaceOnUse"
       gradientTransform="matrix(0.47103918,0,0,0.40638008,7.0397918,-1.8947647)"
       spreadMethod="reflect" />
    <linearGradient
       id="linearGradient3333-4-4">
      <stop
         id="stop3335-4-6"
         style="stop-color:#ffffff;stop-opacity:1"
         offset="0" />
      <stop
         id="stop3337-7-2"
         style="stop-color:#ffffff;stop-opacity:0"
         offset="1" />
    </linearGradient>
    <linearGradient
       x1="23.903786"
       y1="35.75"
       x2="23.903786"
       y2="20.443331"
       id="linearGradient3254"
       xlink:href="#linearGradient3495"
       gradientUnits="userSpaceOnUse"
       gradientTransform="matrix(0.47010232,0,0,0.43369198,4.7628873,1.8375291)" />
    <linearGradient
       id="linearGradient3495">
      <stop
         id="stop3497"
         style="stop-color:#000000;stop-opacity:1"
         offset="0" />
      <stop
         id="stop3874"
         style="stop-color:#000000;stop-opacity:0.49803922"
         offset="0.5" />
      <stop
         id="stop3499"
         style="stop-color:#000000;stop-opacity:0"
         offset="1" />
    </linearGradient>
    <linearGradient
       x1="25.525208"
       y1="30.188753"
       x2="25.525208"
       y2="15.737678"
       id="linearGradient3257"
       xlink:href="#linearGradient3333-4"
       gradientUnits="userSpaceOnUse"
       gradientTransform="matrix(0.47103918,0,0,0.40638008,4.6951727,2.4900612)"
       spreadMethod="reflect" />
    <linearGradient
       id="linearGradient3333-4">
      <stop
         id="stop3335-4"
         style="stop-color:#ffffff;stop-opacity:1"
         offset="0" />
      <stop
         id="stop3337-7"
         style="stop-color:#ffffff;stop-opacity:0"
         offset="1" />
    </linearGradient>
    <linearGradient
       x1="25.525208"
       y1="30.188753"
       x2="25.525208"
       y2="15.737678"
       id="linearGradient3260"
       xlink:href="#linearGradient3866"
       gradientUnits="userSpaceOnUse"
       gradientTransform="matrix(0.47103918,0,0,0.40638008,4.6951727,1.7342651)"
       spreadMethod="reflect" />
    <linearGradient
       id="linearGradient3866">
      <stop
         id="stop3868"
         style="stop-color:#a0a0a0;stop-opacity:1"
         offset="0" />
      <stop
         id="stop3872"
         style="stop-color:#8f8f8f;stop-opacity:0.63478261"
         offset="0.5" />
      <stop
         id="stop3870"
         style="stop-color:#9d9d9d;stop-opacity:0"
         offset="1" />
    </linearGradient>
    <linearGradient
       x1="20.052792"
       y1="10.636821"
       x2="20.052792"
       y2="45.243549"
       id="linearGradient3263"
       xlink:href="#linearGradient3600"
       gradientUnits="userSpaceOnUse"
       gradientTransform="matrix(0.4444445,0,0,0.39393937,5.3333332,2.4696933)" />
    <linearGradient
       id="linearGradient3600">
      <stop
         id="stop3602"
         style="stop-color:#f4f4f4;stop-opacity:1"
         offset="0" />
      <stop
         id="stop3604"
         style="stop-color:#dbdbdb;stop-opacity:1"
         offset="1" />
    </linearGradient>
    <radialGradient
       cx="19.740461"
       cy="8.4497671"
       r="19.99999"
       fx="19.740461"
       fy="8.4497671"
       id="radialGradient3270"
       xlink:href="#linearGradient3846-2"
       gradientUnits="userSpaceOnUse"
       gradientTransform="matrix(2.6397241e-8,1.0633553,-0.77970021,0,22.588351,0.12455372)" />
    <linearGradient
       id="linearGradient3846-2">
      <stop
         id="stop3848-3"
         style="stop-color:#fff3cb;stop-opacity:1"
         offset="0" />
      <stop
         id="stop3850-6"
         style="stop-color:#fdde76;stop-opacity:1"
         offset="0.26238" />
      <stop
         id="stop3852-8"
         style="stop-color:#f9c440;stop-opacity:1"
         offset="0.66093999" />
      <stop
         id="stop3854-1"
         style="stop-color:#e48b20;stop-opacity:1"
         offset="1" />
    </linearGradient>
    <linearGradient
       x1="24"
       y1="44"
       x2="24"
       y2="3.8990016"
       id="linearGradient3272"
       xlink:href="#linearGradient3856-5"
       gradientUnits="userSpaceOnUse"
       gradientTransform="matrix(0.69230705,0,0,0.69230705,-0.61538668,-0.61536886)" />
    <linearGradient
       id="linearGradient3856-5">
      <stop
         id="stop3858-3"
         style="stop-color:#b67926;stop-opacity:1"
         offset="0" />
      <stop
         id="stop3860-4"
         style="stop-color:#eab41a;stop-opacity:1"
         offset="1" />
    </linearGradient>
    <radialGradient
       cx="4.9929786"
       cy="43.5"
       r="2.5"
       fx="4.9929786"
       fy="43.5"
       id="radialGradient2976-573-8"
       xlink:href="#linearGradient3688-166-749-57-8"
       gradientUnits="userSpaceOnUse"
       gradientTransform="matrix(2.003784,0,0,1.4,27.98813,-17.4)" />
    <linearGradient
       id="linearGradient3688-166-749-57-8">
      <stop
         id="stop3180-3"
         style="stop-color:#181818;stop-opacity:1"
         offset="0" />
      <stop
         id="stop3182-8"
         style="stop-color:#181818;stop-opacity:0"
         offset="1" />
    </linearGradient>
    <radialGradient
       cx="4.9929786"
       cy="43.5"
       r="2.5"
       fx="4.9929786"
       fy="43.5"
       id="radialGradient2978-786-0"
       xlink:href="#linearGradient3688-464-309-665-9"
       gradientUnits="userSpaceOnUse"
       gradientTransform="matrix(2.003784,0,0,1.4,-20.01187,-104.4)" />
    <linearGradient
       id="linearGradient3688-464-309-665-9">
      <stop
         id="stop3186-3"
         style="stop-color:#181818;stop-opacity:1"
         offset="0" />
      <stop
         id="stop3188-6"
         style="stop-color:#181818;stop-opacity:0"
         offset="1" />
    </linearGradient>
    <linearGradient
       x1="25.058096"
       y1="47.027729"
       x2="25.058096"
       y2="39.999443"
       id="linearGradient2980-983-9"
       xlink:href="#linearGradient3702-501-757-17-4"
       gradientUnits="userSpaceOnUse" />
    <linearGradient
       id="linearGradient3702-501-757-17-4">
      <stop
         id="stop3192-0"
         style="stop-color:#181818;stop-opacity:0"
         offset="0" />
      <stop
         id="stop3194-4"
         style="stop-color:#181818;stop-opacity:1"
         offset="0.5" />
      <stop
         id="stop3196-2"
         style="stop-color:#181818;stop-opacity:0"
         offset="1" />
    </linearGradient>
  </defs>
  <metadata
     id="metadata4404">
    <rdf:RDF>
      <cc:Work
         rdf:about="">
        <dc:format>image/svg+xml</dc:format>
        <dc:type
           rdf:resource="http://purl.org/dc/dcmitype/StillImage" />
        <dc:title />
      </cc:Work>
    </rdf:RDF>
  </metadata>
  <rect
     style="color:#000000;display:inline;overflow:visible;visibility:visible;fill:#fbd15b;fill-opacity:1;fill-rule:nonzero;stroke:#b67926;stroke-width:1;stroke-linecap:round;stroke-linejoin:round;stroke-miterlimit:4;stroke-dasharray:none;stroke-dashoffset:0;stroke-opacity:1;marker:none;enable-background:accumulate;opacity:1"
     id="rect5505-21"
     y="2.5"
     x="2.5"
     ry="2.1600001"
     rx="2.1600001"
     height="27"
     width="27" />
  <rect
     width="27"
     height="27"
     rx="2.1600001"
     ry="2.1600001"
     x="2.5"
     y="2.5"
     id="rect920"
     style="color:#000000;display:inline;overflow:visible;visibility:visible;fill:#fbd15b;fill-opacity:1;fill-rule:nonzero;stroke:none;stroke-width:1;stroke-linecap:round;stroke-linejoin:round;stroke-miterlimit:4;stroke-dasharray:none;stroke-dashoffset:0;stroke-opacity:1;marker:none;enable-background:accumulate;opacity:1" />
  <path
     inkscape:connector-curvature="0"
     style="color:#000000;display:inline;overflow:visible;visibility:visible;fill:#b3b3b3;fill-opacity:1;fill-rule:nonzero;stroke:none;stroke-width:1;marker:none;enable-background:accumulate"
     id="rect4813"
     d="m 10,23 12,0 0,-2.5 -12,0 z" />
  <path
     inkscape:connector-curvature="0"
     style="opacity:0.2;fill:none;stroke:#000000;stroke-width:1px;stroke-linecap:square;stroke-linejoin:miter;stroke-opacity:1"
     id="path4815"
     d="m 10.497387,22.5 11.005227,0" />
  <path
     inkscape:connector-curvature="0"
     style="color:#000000;display:inline;overflow:visible;visibility:visible;opacity:0.3;fill:none;stroke:#b67926;stroke-width:0.99999994;stroke-linejoin:miter;stroke-miterlimit:4;stroke-dasharray:none;stroke-opacity:1;marker:none;enable-background:accumulate"
     id="path7715"
     d="m 4.6954874,4.5067611 c -0.2073065,0 -0.1950032,0.019416 -0.1950032,0.1746179 l 0,14.413123 c 0,0.288027 -0.035963,0.385633 0.3326872,0.385633 l 4.2680551,0 c 0.7777451,0 1.4313655,-0.147646 1.3987735,0.729134 l 0,2.269861 11,0 0,-2.358632 c 0,-0.646753 0.692249,-0.640363 1.319664,-0.640363 l 4.456815,0 c 0.228176,0 0.223037,-0.0072 0.223037,-0.240397 l 0,-14.5663159 c 0,-0.2248183 -0.0095,-0.166661 -0.203622,-0.166661 z"
     sodipodi:nodetypes="ssssscccsssssss" />
  <g
     id="g8198"
     transform="matrix(1.0999931,0,0,1.0984226,-1.5999587,-2.6668746)">
    <rect
       width="20"
       height="13.181818"
       rx="2.8205099"
       ry="2.8205101"
       x="6"
       y="7.818182"
       id="rect2396-9-0"
       style="display:inline;overflow:visible;visibility:visible;fill:#8f8f8f;fill-opacity:1;fill-rule:evenodd;stroke:none;stroke-width:0.99999994;marker:none;enable-background:accumulate" />
    <rect
       width="20"
       height="13"
       rx="1"
       ry="1"
       x="6"
       y="7"
       id="rect2396-9"
       style="display:inline;overflow:visible;visibility:visible;fill:#f9f9f9;fill-opacity:1;fill-rule:evenodd;stroke:none;stroke-width:0.99999994;marker:none;enable-background:accumulate" />
    <path
       d="m 13.482997,14.128857 -6.3475156,5.539959 z m 5.048951,0.0254 6.391677,5.412702 z"
       id="path3341-2"
       style="display:inline;overflow:visible;visibility:visible;fill:none;stroke:#a0a0a0;stroke-width:0.90974623;stroke-linecap:butt;stroke-linejoin:miter;stroke-miterlimit:4;stroke-dasharray:none;stroke-dashoffset:0;stroke-opacity:1;marker:none;enable-background:accumulate;opacity:0.5"
       inkscape:connector-curvature="0" />
    <path
       d="M 6.2197877,8.3838637 16.000113,15.957567 25.928248,8.3329341"
       id="path3341-2-2"
       style="display:inline;overflow:visible;visibility:visible;fill:none;stroke:#969696;stroke-width:0.90974623;stroke-linecap:butt;stroke-linejoin:miter;stroke-miterlimit:4;stroke-dasharray:none;stroke-dashoffset:0;stroke-opacity:1;marker:none;enable-background:accumulate;opacity:0.5"
       inkscape:connector-curvature="0" />
  </g>
  <path
     inkscape:connector-curvature="0"
     style="color:#000000;display:inline;overflow:visible;visibility:visible;fill:#fdecbb;fill-opacity:1;fill-rule:nonzero;stroke:none;stroke-width:1;marker:none;enable-background:accumulate;opacity:1"
     id="rect4047"
     d="M 4.5,3 C 3.669,3 3,3.669 3,4.5 l 0,15 C 3,20.331 3.669,21 4.5,21 l 5.5,0 0,-1 -5.5,0 C 4.223,20 4,19.777 4,19.5 L 4,4.5 C 4,4.223 4.223,4 4.5,4 l 23,0 C 27.777,4 28,4.223 28,4.5 l 0,15 c 0,0.277 -0.223,0.5 -0.5,0.5 l -5.5,0 0,1 5.5,0 c 0.831,0 1.5,-0.669 1.5,-1.5 l 0,-15 C 29,3.669 28.331,3 27.5,3 Z"
     sodipodi:nodetypes="ssssccssssssssccsssss" />
  <path
     inkscape:connector-curvature="0"
     style="color:#000000;display:inline;overflow:visible;visibility:visible;fill:#fdecbb;fill-opacity:1;fill-rule:nonzero;stroke:none;stroke-width:1;marker:none;enable-background:accumulate;opacity:1"
     id="rect4115"
     d="m 10,21.5 0,1.363636 C 10,23.493182 10.514615,24 11.153847,24 l 9.692306,0 C 21.485385,24 22,23.493182 22,22.863636 L 22,21.5 c 0,0.629545 -0.514615,1.5 -1.153847,1.5 l -9.692306,0 C 10.514615,23 10,22.129545 10,21.5 Z" />
</svg>

<svg xmlns="http://www.w3.org/2000/svg" width="32" height="32"><defs><linearGradient id="a"><stop offset="0" stop-color="#fff"/><stop offset=".063" stop-color="#fff" stop-opacity=".235"/><stop offset=".951" stop-color="#fff" stop-opacity=".157"/><stop offset="1" stop-color="#fff" stop-opacity=".392"/></linearGradient><linearGradient id="b"><stop offset="0" stop-color="#fff"/><stop offset=".063" stop-color="#fff" stop-opacity=".235"/><stop offset=".951" stop-color="#fff" stop-opacity=".157"/><stop offset="1" stop-color="#fff" stop-opacity=".392"/></linearGradient><linearGradient id="c"><stop offset="0" stop-color="#fff0bf"/><stop offset="1" stop-color="#fdde76"/></linearGradient><linearGradient id="d"><stop offset="0" stop-color="#ffeeb6"/><stop offset="1" stop-color="#feeeb7"/></linearGradient><linearGradient id="e"><stop offset="0" stop-color="#969696"/><stop offset=".5" stop-color="#858585" stop-opacity=".635"/><stop offset="1" stop-color="#939393" stop-opacity="0"/></linearGradient><linearGradient id="f"><stop offset="0" stop-color="#b67926"/><stop offset="1" stop-color="#eab41a"/></linearGradient><linearGradient id="g"><stop offset="0" stop-color="#fff"/><stop offset=".063" stop-color="#fff" stop-opacity=".235"/><stop offset=".951" stop-color="#fff" stop-opacity=".157"/><stop offset="1" stop-color="#fff" stop-opacity=".392"/></linearGradient><linearGradient id="h"><stop offset="0" stop-color="#fff"/><stop offset="1" stop-color="#fff" stop-opacity="0"/></linearGradient><linearGradient id="i"><stop offset="0" stop-color="#fff"/><stop offset="1" stop-color="#fff" stop-opacity="0"/></linearGradient><linearGradient id="j"><stop offset="0"/><stop offset=".5" stop-opacity=".498"/><stop offset="1" stop-opacity="0"/></linearGradient><linearGradient id="k"><stop offset="0" stop-color="#fff"/><stop offset="1" stop-color="#fff" stop-opacity="0"/></linearGradient><linearGradient id="l"><stop offset="0" stop-color="#a0a0a0"/><stop offset=".5" stop-color="#8f8f8f" stop-opacity=".635"/><stop offset="1" stop-color="#9d9d9d" stop-opacity="0"/></linearGradient><linearGradient id="m"><stop offset="0" stop-color="#f4f4f4"/><stop offset="1" stop-color="#dbdbdb"/></linearGradient><linearGradient id="n"><stop offset="0" stop-color="#fff3cb"/><stop offset=".262" stop-color="#fdde76"/><stop offset=".661" stop-color="#f9c440"/><stop offset="1" stop-color="#e48b20"/></linearGradient><linearGradient id="o"><stop offset="0" stop-color="#b67926"/><stop offset="1" stop-color="#eab41a"/></linearGradient><linearGradient id="p"><stop offset="0" stop-color="#181818"/><stop offset="1" stop-color="#181818" stop-opacity="0"/></linearGradient><linearGradient id="q"><stop offset="0" stop-color="#181818"/><stop offset="1" stop-color="#181818" stop-opacity="0"/></linearGradient><linearGradient id="r"><stop offset="0" stop-color="#181818" stop-opacity="0"/><stop offset=".5" stop-color="#181818"/><stop offset="1" stop-color="#181818" stop-opacity="0"/></linearGradient></defs><rect style="marker:none" y="2.5" x="2.5" ry="2.16" rx="2.16" height="27" width="27" color="#000" overflow="visible" fill="#fbd15b" stroke="#b67926" stroke-linecap="round" stroke-linejoin="round"/><rect width="27" height="27" rx="2.16" ry="2.16" x="2.5" y="2.5" style="marker:none" color="#000" overflow="visible" fill="#fbd15b"/><path style="marker:none" d="M10 23h12v-2.5H10z" color="#000" overflow="visible" fill="#b3b3b3"/><path d="M10.497 22.5h11.006" opacity=".2" fill="none" stroke="#000" stroke-linecap="square"/><path style="marker:none" d="M4.695 4.507c-.207 0-.195.02-.195.174v14.414c0 .288-.035.385.333.385h4.268c.778 0 1.432-.148 1.399.73v2.27h11v-2.36c0-.646.692-.64 1.32-.64h4.456c.229 0 .224-.007.224-.24V4.673c0-.224-.01-.166-.204-.166z" color="#000" overflow="visible" opacity=".3" fill="none" stroke="#b67926"/><g transform="matrix(1.1 0 0 1.09842 -1.6 -2.667)"><rect width="20" height="13.182" rx="2.821" ry="2.821" x="6" y="7.818" style="marker:none" overflow="visible" fill="#8f8f8f" fill-rule="evenodd"/><rect width="20" height="13" rx="1" ry="1" x="6" y="7" style="marker:none" overflow="visible" fill="#f9f9f9" fill-rule="evenodd"/><path d="M13.483 14.129l-6.348 5.54zm5.049.025l6.392 5.413z" style="marker:none" overflow="visible" fill="none" stroke="#a0a0a0" stroke-width=".91" opacity=".5"/><path d="M6.22 8.384L16 15.958l9.928-7.625" style="marker:none" overflow="visible" fill="none" stroke="#969696" stroke-width=".91" opacity=".5"/></g><path style="marker:none" d="M4.5 3C3.669 3 3 3.669 3 4.5v15c0 .831.669 1.5 1.5 1.5H10v-1H4.5a.499.499 0 0 1-.5-.5v-15c0-.277.223-.5.5-.5h23c.277 0 .5.223.5.5v15c0 .277-.223.5-.5.5H22v1h5.5c.831 0 1.5-.669 1.5-1.5v-15c0-.831-.669-1.5-1.5-1.5zM10 21.5v1.364c0 .63.515 1.136 1.154 1.136h9.692c.64 0 1.154-.507 1.154-1.136V21.5c0 .63-.515 1.5-1.154 1.5h-9.692c-.64 0-1.154-.87-1.154-1.5z" color="#000" overflow="visible" fill="#fdecbb"/></svg>
